dest/img/img-trust-8.svg

<svg fill="none" height="24" viewBox="0 0 181 24" width="181" xmlns="http://www.w3.org/2000/svg" xmlns:xlink="http://www.w3.org/1999/xlink"><clipPath id="a"><path d="m.866638 0h180v24h-180z"/></clipPath><g clip-path="url(#a)" clip-rule="evenodd" fill="#576472" fill-rule="evenodd"><path d="m173.649 22.7694-8.279-10.2316h-.063v10.2316h-5.289v-22.220694h5.289v9.038924h.095l7.964-9.038924h6.737l-9.602 10.231594 10.169 11.9891z"/><path d="m158.642 19.8922c-.987 1.1385-2.204 2.0398-3.652 2.7039-1.448.6642-3.117.9962-5.006.9962-1.72 0-3.31-.2846-4.769-.8539-1.458-.5692-2.723-1.3756-3.793-2.4193-1.071-1.0436-1.91-2.2928-2.519-3.7475-.608-1.4548-.913-3.0571-.913-4.8071 0-1.79206.31-3.41547.929-4.87023s1.474-2.6934 2.566-3.71595c1.091-1.02255 2.371-1.8079 3.84-2.356067 1.469-.548172 3.054-.822253 4.754-.822253 1.574 0 3.122.279352 4.643.838065 1.522.558715 2.755 1.375685 3.699 2.450945l-3.651 3.66851c-.504-.69575-1.165-1.21229-1.984-1.54963-.818-.33733-1.658-.506-2.518-.506-.945 0-1.81.17394-2.597.52181-.787.34788-1.464.82752-2.031 1.43895-.566.61142-1.007 1.33352-1.322 2.16631-.315.8328-.472 1.74464-.472 2.73554 0 1.012.157 1.9397.472 2.783.315.8434.75 1.5655 1.306 2.1664.557.6008 1.223 1.0699 1.999 1.4073.777.3373 1.627.506 2.55.506 1.071 0 2.005-.2108 2.802-.6325.798-.4217 1.438-.9699 1.92-1.6445z"/><path d="m124.361 0c6.614 0 11.977 5.34235 11.977 11.9332 0 6.5908-5.363 11.9335-11.977 11.9335-6.615 0-11.978-5.3424-11.978-11.9332s5.363-11.9335 11.978-11.9335zm-3.553 4.7782v3.00203c-.881.14286-1.762.28606-2.643.4296v5.29667 5.2929c1.526.25 3.051.4996 4.577.7493 1.524.2503 3.051.501 4.577.7517v-6.786-6.7891c-1.526.24725-3.053.49381-4.577.74106l-.792.12809v-1.67821l6.897-.99106v5.45292 2.0398c-.496.2181-.844.7132-.844 1.2895 0 .7774.633 1.4086 1.415 1.4086.781 0 1.413-.6312 1.413-1.4086 0-.5763-.346-1.0714-.842-1.2895v-9.12595zm-1.541 4.58179v4.21391 4.2112c1.147.1432 2.295.2894 3.442.434 1.146.1442 2.294.2887 3.441.4353v-5.0741-5.07609c-1.146.14218-2.295.28503-3.441.42721-1.147.14286-2.295.28639-3.442.42857zm1.101 5.72811v.797c.78.0508 1.56.1006 2.34.1502.779.0501 1.56.0997 2.341.1501v-.9061c-.781-.0322-1.561-.0652-2.341-.0961-.78-.0312-1.56-.0642-2.34-.0951zm0-4.0966v.8047c.78-.0309 1.56-.062 2.34-.0926.779-.0302 1.56-.0598 2.341-.0906v-.9142c-.781.0488-1.561.0969-2.341.1453-.78.0487-1.56.0987-2.34.1474zm0 2.2358v.9658c.78.0114 1.56.0236 2.34.0351.779.0118 1.56.0244 2.341.0369v-1.0973c-.781.0104-1.561.0185-2.341.0292-.78.01-1.56.0207-2.34.0303z"/><path d="m106.01 22.7694-4.874-8.8192h-1.8485v8.8192h-5.3529v-22.220694h8.6024c1.084 0 2.141.109847 3.171.329544 1.03.2197 1.954.59108 2.772 1.11417s1.471 1.21356 1.959 2.07142c.489.85787.733 1.92495.733 3.20129 0 1.50649-.414 2.77237-1.242 3.79757-.829 1.0253-1.976 1.7576-3.442 2.197l5.895 9.5097zm-.235-15.33586c0-.52649-.113-.95294-.339-1.27937s-.516-.57914-.87-.75815c-.355-.179-.752-.3001-1.193-.36328s-.865-.09476-1.273-.09476h-2.9338v5.21222h2.6108c.452 0 .914-.0368 1.387-.1105.472-.07374.902-.20536 1.289-.3949.387-.18953.704-.46331.951-.82132.247-.35802.371-.82133.371-1.38994z"/><path d="m86.0884 22.7694-8.2793-10.2316h-.063v10.2316h-5.2887v-22.220694h5.2887v9.038924h.0945l7.9645-9.038924h6.7368l-9.6015 10.231594 10.1682 11.9891z"/><path d="m71.356 19.8922c-.9864 1.1385-2.2036 2.0398-3.6517 2.7039-1.4482.6642-3.1166.9962-5.0054.9962-1.721 0-3.3107-.2846-4.7693-.8539-1.4586-.5692-2.7231-1.3756-3.7934-2.4193-1.0704-1.0436-1.9098-2.2928-2.5185-3.7475-.6086-1.4548-.9129-3.0571-.9129-4.8071 0-1.79206.3096-3.41547.9287-4.87023s1.4743-2.6934 2.5656-3.71595c1.0914-1.02255 2.3716-1.8079 3.8407-2.356067 1.4691-.548172 3.0536-.822253 4.7535-.822253 1.574 0 3.1218.279352 4.6434.838065 1.5215.558715 2.7545 1.375685 3.6989 2.450945l-3.6517 3.66851c-.5037-.69575-1.1648-1.21229-1.9833-1.54963-.8185-.33733-1.6579-.506-2.5184-.506-.9444 0-1.8101.17394-2.5972.52181-.787.34788-1.4638.82752-2.0304 1.43895-.5667.61142-1.0074 1.33352-1.3222 2.16631-.3148.8328-.4722 1.74464-.4722 2.73554 0 1.012.1574 1.9397.4722 2.783.3148.8434.7503 1.5655 1.3064 2.1664.5562.6008 1.2225 1.0699 1.999 1.4073.7766.3373 1.6265.506 2.5499.506 1.0704 0 2.0043-.2108 2.8018-.6325s1.4376-.9699 1.9203-1.6445z"/><path d="m48.7774 14.3606c0 1.3364-.2276 2.5526-.6827 3.6488-.4552 1.0962-1.1061 2.0357-1.9529 2.8187s-1.8681 1.3938-3.0642 1.8322c-1.1961.4385-2.5244.6577-3.9851.6577-1.4818 0-2.8155-.2192-4.0009-.6577-1.1855-.4384-2.191-1.0492-3.0166-1.8322s-1.4607-1.7225-1.9052-2.8187c-.4446-1.0962-.6669-2.3124-.6669-3.6488v-13.811894h5.3981v13.373494c0 .6055.0794 1.1797.2382 1.7225.1588.5429.4022 1.0284.7303 1.4564s.7621.7673 1.3019 1.0179 1.1908.3758 1.9529.3758 1.413-.1252 1.9528-.3758.9791-.5899 1.3178-1.0179.5821-.9135.7303-1.4564c.1482-.5428.2223-1.117.2223-1.7225v-13.373494h5.4299z"/><path d="m21.188 22.7694.1266-15.72397h-.0949l-5.8242 15.72397h-3.7984l-5.66595-15.72397h-.09496l.12662 15.72397h-5.096172v-22.220694h7.691732l5.09613 14.248894h.1267l4.8746-14.248894h7.8183v22.220694z"/></g></svg>

<svg width="181" height="24" viewBox="0 0 181 24" fill="none" xmlns="http://www.w3.org/2000/svg">
<g clip-path="url(#clip0)">
<path fill-rule="evenodd" clip-rule="evenodd" d="M173.649 22.7694L165.37 12.5378H165.307V22.7694H160.018V0.548706H165.307V9.58763H165.402L173.366 0.548706H180.103L170.501 10.7803L180.67 22.7694H173.649Z" fill="#576472"/>
<path fill-rule="evenodd" clip-rule="evenodd" d="M158.642 19.8922C157.655 21.0307 156.438 21.932 154.99 22.5961C153.542 23.2603 151.873 23.5923 149.984 23.5923C148.264 23.5923 146.674 23.3077 145.215 22.7384C143.757 22.1692 142.492 21.3628 141.422 20.3191C140.351 19.2755 139.512 18.0263 138.903 16.5716C138.295 15.1168 137.99 13.5145 137.99 11.7645C137.99 9.97244 138.3 8.34903 138.919 6.89427C139.538 5.43951 140.393 4.20087 141.485 3.17832C142.576 2.15577 143.856 1.37042 145.325 0.822253C146.794 0.274081 148.379 0 150.079 0C151.653 0 153.201 0.279352 154.722 0.838065C156.244 1.39678 157.477 2.21375 158.421 3.28901L154.77 6.95752C154.266 6.26177 153.605 5.74523 152.786 5.40789C151.968 5.07056 151.128 4.90189 150.268 4.90189C149.323 4.90189 148.458 5.07583 147.671 5.4237C146.884 5.77158 146.207 6.25122 145.64 6.86265C145.074 7.47407 144.633 8.19617 144.318 9.02896C144.003 9.86176 143.846 10.7736 143.846 11.7645C143.846 12.7765 144.003 13.7042 144.318 14.5475C144.633 15.3909 145.068 16.113 145.624 16.7139C146.181 17.3147 146.847 17.7838 147.623 18.1212C148.4 18.4585 149.25 18.6272 150.173 18.6272C151.244 18.6272 152.178 18.4164 152.975 17.9947C153.773 17.573 154.413 17.0248 154.895 16.3502L158.642 19.8922Z" fill="#576472"/>
<path fill-rule="evenodd" clip-rule="evenodd" d="M124.361 0C130.975 0 136.338 5.34235 136.338 11.9332C136.338 18.524 130.975 23.8667 124.361 23.8667C117.746 23.8667 112.383 18.5243 112.383 11.9335C112.383 5.3427 117.746 0 124.361 0ZM120.808 4.7782V7.78023C119.927 7.92309 119.046 8.06629 118.165 8.20983V13.5065V18.7994C119.691 19.0494 121.216 19.299 122.742 19.5487C124.266 19.799 125.793 20.0497 127.319 20.3004V13.5144V6.7253C125.793 6.97255 124.266 7.21911 122.742 7.46636L121.95 7.59445V5.91624L128.847 4.92518V10.3781V12.4179C128.351 12.636 128.003 13.1311 128.003 13.7074C128.003 14.4848 128.636 15.116 129.418 15.116C130.199 15.116 130.831 14.4848 130.831 13.7074C130.831 13.1311 130.485 12.636 129.989 12.4179V3.29195L120.808 4.7782ZM119.267 9.35999V13.5739V17.7851C120.414 17.9283 121.562 18.0745 122.709 18.2191C123.855 18.3633 125.003 18.5078 126.15 18.6544V13.5803V8.50421C125.004 8.64639 123.855 8.78924 122.709 8.93142C121.562 9.07428 120.414 9.21781 119.267 9.35999ZM120.368 15.0881V15.8851C121.148 15.9359 121.928 15.9857 122.708 16.0353C123.487 16.0854 124.268 16.135 125.049 16.1854V15.2793C124.268 15.2471 123.488 15.2141 122.708 15.1832C121.928 15.152 121.148 15.119 120.368 15.0881ZM120.368 10.9915V11.7962C121.148 11.7653 121.928 11.7342 122.708 11.7036C123.487 11.6734 124.268 11.6438 125.049 11.613V10.6988C124.268 10.7476 123.488 10.7957 122.708 10.8441C121.928 10.8928 121.148 10.9428 120.368 10.9915ZM120.368 13.2273V14.1931C121.148 14.2045 121.928 14.2167 122.708 14.2282C123.487 14.24 124.268 14.2526 125.049 14.2651V13.1678C124.268 13.1782 123.488 13.1863 122.708 13.197C121.928 13.207 121.148 13.2177 120.368 13.2273Z" fill="#576472"/>
<path fill-rule="evenodd" clip-rule="evenodd" d="M106.01 22.7694L101.136 13.9502H99.2875V22.7694H93.9346V0.548706H102.537C103.621 0.548706 104.678 0.658553 105.708 0.87825C106.738 1.09795 107.662 1.46933 108.48 1.99242C109.298 2.51551 109.951 3.20598 110.439 4.06384C110.928 4.92171 111.172 5.98879 111.172 7.26513C111.172 8.77162 110.758 10.0375 109.93 11.0627C109.101 12.088 107.954 12.8203 106.488 13.2597L112.383 22.7694H106.01ZM105.775 7.43354C105.775 6.90705 105.662 6.4806 105.436 6.15417C105.21 5.82774 104.92 5.57503 104.566 5.39602C104.211 5.21702 103.814 5.09592 103.373 5.03274C102.932 4.96956 102.508 4.93798 102.1 4.93798H99.1662V10.1502H101.777C102.229 10.1502 102.691 10.1134 103.164 10.0397C103.636 9.96596 104.066 9.83434 104.453 9.6448C104.84 9.45527 105.157 9.18149 105.404 8.82348C105.651 8.46546 105.775 8.00215 105.775 7.43354Z" fill="#576472"/>
<path fill-rule="evenodd" clip-rule="evenodd" d="M86.0884 22.7694L77.8091 12.5378H77.7461V22.7694H72.4574V0.548706H77.7461V9.58763H77.8406L85.8051 0.548706H92.5419L82.9404 10.7803L93.1086 22.7694H86.0884Z" fill="#576472"/>
<path fill-rule="evenodd" clip-rule="evenodd" d="M71.356 19.8922C70.3696 21.0307 69.1524 21.932 67.7043 22.5961C66.2561 23.2603 64.5877 23.5923 62.6989 23.5923C60.9779 23.5923 59.3882 23.3077 57.9296 22.7384C56.471 22.1692 55.2065 21.3628 54.1362 20.3191C53.0658 19.2755 52.2264 18.0263 51.6177 16.5716C51.0091 15.1168 50.7048 13.5145 50.7048 11.7645C50.7048 9.97244 51.0144 8.34903 51.6335 6.89427C52.2526 5.43951 53.1078 4.20087 54.1991 3.17832C55.2905 2.15577 56.5707 1.37042 58.0398 0.822253C59.5089 0.274081 61.0934 0 62.7933 0C64.3673 0 65.9151 0.279352 67.4367 0.838065C68.9582 1.39678 70.1912 2.21375 71.1356 3.28901L67.4839 6.95752C66.9802 6.26177 66.3191 5.74523 65.5006 5.40789C64.6821 5.07056 63.8427 4.90189 62.9822 4.90189C62.0378 4.90189 61.1721 5.07583 60.385 5.4237C59.598 5.77158 58.9212 6.25122 58.3546 6.86265C57.7879 7.47407 57.3472 8.19617 57.0324 9.02896C56.7176 9.86176 56.5602 10.7736 56.5602 11.7645C56.5602 12.7765 56.7176 13.7042 57.0324 14.5475C57.3472 15.3909 57.7827 16.113 58.3388 16.7139C58.895 17.3147 59.5613 17.7838 60.3378 18.1212C61.1144 18.4585 61.9643 18.6272 62.8877 18.6272C63.9581 18.6272 64.892 18.4164 65.6895 17.9947C66.487 17.573 67.1271 17.0248 67.6098 16.3502L71.356 19.8922Z" fill="#576472"/>
<path fill-rule="evenodd" clip-rule="evenodd" d="M48.7774 14.3606C48.7774 15.697 48.5498 16.9132 48.0947 18.0094C47.6395 19.1056 46.9886 20.0451 46.1418 20.8281C45.295 21.6111 44.2737 22.2219 43.0776 22.6603C41.8815 23.0988 40.5532 23.318 39.0925 23.318C37.6107 23.318 36.277 23.0988 35.0916 22.6603C33.9061 22.2219 32.9006 21.6111 32.075 20.8281C31.2494 20.0451 30.6143 19.1056 30.1698 18.0094C29.7252 16.9132 29.5029 15.697 29.5029 14.3606V0.548706H34.901V13.9222C34.901 14.5277 34.9804 15.1019 35.1392 15.6447C35.298 16.1876 35.5414 16.6731 35.8695 17.1011C36.1976 17.5291 36.6316 17.8684 37.1714 18.119C37.7112 18.3696 38.3622 18.4948 39.1243 18.4948C39.8864 18.4948 40.5373 18.3696 41.0771 18.119C41.6169 17.8684 42.0562 17.5291 42.3949 17.1011C42.7336 16.6731 42.977 16.1876 43.1252 15.6447C43.2734 15.1019 43.3475 14.5277 43.3475 13.9222V0.548706H48.7774V14.3606Z" fill="#576472"/>
<path fill-rule="evenodd" clip-rule="evenodd" d="M21.188 22.7694L21.3146 7.04543H21.2197L15.3955 22.7694H11.5971L5.93115 7.04543H5.83619L5.96281 22.7694H0.866638V0.548706H8.55837L13.6545 14.7976H13.7812L18.6558 0.548706H26.4741V22.7694H21.188Z" fill="#576472"/>
</g>
<defs>
<clipPath id="clip0">
<rect width="180" height="24" fill="white" transform="translate(0.866638)"/>
</clipPath>
</defs>
</svg>
